X: 2063
T: Varsoviana
C:Violet Endacott
B: kameruka bush dance
B: steve tunes
M:3/4
L:1/8
Q: 1/4=100
K:G
V:1 
B>c | "G"d2 g2 f2 | "C" c4 A>B | c2 e2 d2 |"G" B4 B>c |
 B2 A2 B2 | "C"c4 c>d |1 "C"e2 d2 "D"c2 |"G" B4 :|2 "C"e2d2 "D7"B2||
|: "G" G4  G>A | B2 d2 A>B|"C"c2e2 G>A|"G"B2d2e2|
"D7"A4 G>A|"G"B2d2A>B|"C"c2e2f>e|"G"d2g2"D7"f2|
"G"g4d2|B2G2B2|"Em7"d2-d>e d>B|"G"G2B2c2|
"D7"A4B>A|"G"G2B2e2|"Em7"d2-d>g f>e|"G"d2g2"D7"f2|"G"g4:|
% abcbook-tune_id 6343f2490b2628835b5db797


% abcbook-boost 0
% abcbook-tablature 
% abcbook-transpose -5
% abcbook-lastupdated 1665921030560
% abcbook-soundfonts 
% abcbook-repeats 3
%%MIDI transpose             -5
% Transcriptions Only 1 transcription
% Movement Has some stepwise movement
% Mode major
% Key G
% Time_signature 3/4
% Text Has source text
% Has_accompaniment_chords No chords

